X: 1
T: Gilbert Anderson's Road Song
T: (also known as Johnny Ward's Tune)
C: trad. Metis
O: chords and notation by Trent Bruner
R: reel
S: Fiddle Hell Online 2022-4-10 handout for Calvin Vollrath workshop
Z: 2022 John Chambers <jc:trillian.mit.edu>
M: 2/4
L: 1/16
K: G
"^A"[|] d3c !segno!|:\
"G"BGBG DGBd | g2fg e2dc | BGBG DGBd |\
"E7"c2Bc A2dc | "G"BGBG DGBd | g2fg "G/B"edef |
"Am"g2fg "D7"ecAF | "G"G[BG][B2G2] [B2G2] [1 dc :|2 (3(BcB) \
"^B"|[| "D7"AGFE D2EF | "G"G2Bc "G/B"d2ef | "Am"g2fg "D7"ecAF |
"G"G[BG][B2G2] [B2G2](3(BcB) | "D7"AGFE D2EF | "G"G2Bc "G/B"d2ef |\
"Am"g2fg "D7"ecAF | "G"G[BG][B2G2] "d.S. al"[B2G2]d!segno!c |]
